packages/kaspersky-hexa-ui-icons/src/iconsSVGs/16/MemorySolid.svg

<svg width="16" height="16" viewBox="0 0 16 16" fill="none" xmlns="http://www.w3.org/2000/svg">
<path fill-rule="evenodd" clip-rule="evenodd" d="M7.3166 2.6666C7.3166 2.30762 7.02559 2.0166 6.6666 2.0166C6.30762 2.0166 6.0166 2.30762 6.0166 2.6666V3.34995H5.39991C4.26773 3.34995 3.34991 4.26776 3.34991 5.39995V6.0166H2.6666C2.30762 6.0166 2.0166 6.30762 2.0166 6.6666C2.0166 7.02559 2.30762 7.3166 2.6666 7.3166H3.34991V8.68327H2.6666C2.30762 8.68327 2.0166 8.97428 2.0166 9.33327C2.0166 9.69225 2.30762 9.98327 2.6666 9.98327H3.34991V10.5999C3.34991 11.7321 4.26773 12.6499 5.39991 12.6499H6.0166V13.3333C6.0166 13.6923 6.30762 13.9833 6.6666 13.9833C7.02559 13.9833 7.3166 13.6923 7.3166 13.3333V12.6499H8.68327V13.3333C8.68327 13.6923 8.97428 13.9833 9.33327 13.9833C9.69225 13.9833 9.98327 13.6923 9.98327 13.3333V12.6499H10.5999C11.7321 12.6499 12.6499 11.7321 12.6499 10.5999V9.98327H13.3333C13.6923 9.98327 13.9833 9.69225 13.9833 9.33327C13.9833 8.97428 13.6923 8.68327 13.3333 8.68327H12.6499V7.3166H13.3333C13.6923 7.3166 13.9833 7.02559 13.9833 6.6666C13.9833 6.30762 13.6923 6.0166 13.3333 6.0166H12.6499V5.39995C12.6499 4.26776 11.7321 3.34995 10.5999 3.34995H9.98327V2.6666C9.98327 2.30762 9.69225 2.0166 9.33327 2.0166C8.97428 2.0166 8.68327 2.30762 8.68327 2.6666V3.34995H7.3166V2.6666ZM6.6665 7.66663C6.6665 7.11434 7.11422 6.66663 7.6665 6.66663H8.33317C8.88545 6.66663 9.33317 7.11434 9.33317 7.66663V8.33329C9.33317 8.88558 8.88546 9.33329 8.33317 9.33329H7.6665C7.11422 9.33329 6.6665 8.88558 6.6665 8.33329V7.66663Z" fill="black"/>
</svg>

<svg xmlns="http://www.w3.org/2000/svg" width="16" height="16" fill="none" viewBox="0 0 16 16"><path fill="#000" fill-rule="evenodd" d="M7.3166 2.6667a.65.65 0 0 0-1.3 0V3.35h-.6167c-1.1322 0-2.05.9178-2.05 2.05v.6167h-.6833a.65.65 0 0 0 0 1.3h.6833v1.3666h-.6833a.65.65 0 0 0 0 1.3h.6833V10.6c0 1.1322.9178 2.05 2.05 2.05h.6167v.6833a.65.65 0 1 0 1.3 0V12.65h1.3667v.6833a.65.65 0 1 0 1.3 0V12.65h.6166c1.1322 0 2.05-.9178 2.05-2.05v-.6167h.6834a.65.65 0 1 0 0-1.3h-.6834V7.3167h.6834a.65.65 0 1 0 0-1.3h-.6834V5.4c0-1.1322-.9178-2.05-2.05-2.05h-.6166v-.6833a.65.65 0 0 0-1.3 0V3.35H7.3166zm-.6501 5c0-.5523.4477-1 1-1h.6667c.5523 0 1 .4477 1 1v.6666c0 .5523-.4477 1-1 1h-.6667c-.5523 0-1-.4477-1-1z"/></svg>
